packages/ckeditor5-icons/theme/icons/ai-history.svg

<svg viewBox="0 0 20 20" xmlns="http://www.w3.org/2000/svg">
<g clip-path="url(#clip0_5359_24092)">
<path d="M16.9416 1.86967C17.1454 2.42013 17.579 2.8551 18.1295 3.05886L19.9991 3.75L18.1295 4.44114C17.579 4.64492 17.1454 5.07982 16.9416 5.63033L16.2491 7.5L15.558 5.63033C15.3542 5.07964 14.9195 4.64493 14.3688 4.44114L12.4991 3.75L14.3688 3.05886C14.9195 2.8551 15.3542 2.42031 15.558 1.86967L16.2491 0L16.9416 1.86967Z"/>
<path d="M18.9717 7.29978C19.2771 7.29978 19.5518 7.49161 19.6432 7.783C19.8934 8.58046 20.0134 9.27315 19.9949 10.1824C19.9624 11.7823 19.504 13.345 18.6668 14.7088C17.8296 16.0724 16.6441 17.1882 15.2322 17.9412C13.8202 18.6942 12.2325 19.0565 10.6336 18.992C9.03485 18.9273 7.48211 18.4383 6.13556 17.574C4.78893 16.7096 3.69702 15.5017 2.97247 14.075L4.1004 12.9461C4.78007 14.5342 5.98708 15.8391 7.5174 16.6404C9.04781 17.4417 10.8084 17.6907 12.5008 17.3445C14.1932 16.9982 15.7146 16.0779 16.8074 14.74C17.9003 13.4019 18.4986 11.7274 18.4998 9.99978C18.4991 8.98335 18.4008 8.73364 17.9995 7.79978C17.9033 7.57594 18.1428 7.29978 18.3865 7.29978H18.9717Z"/>
<path d="M11.4998 9.9988L14.6951 13.1951L13.6356 14.2547L10.0994 10.7195L9.99982 10.6072V4.99978H11.4998V9.9988Z"/>
<path d="M10.6998 0.99978C10.812 0.999814 10.9241 1.00201 11.036 1.00632C11.4149 1.0209 11.6998 1.34312 11.6998 1.72231C11.6998 2.17308 11.3019 2.51717 10.8512 2.50705C10.6744 2.50309 10.4972 2.50545 10.3199 2.51443C9.30475 2.56593 8.60976 2.82277 7.69708 3.27029C6.78448 3.7178 5.97268 4.34693 5.31037 5.11794C4.64806 5.88898 4.14929 6.78694 3.84454 7.75662C3.67678 8.29055 3.57145 8.84029 3.52619 9.39529L4.49201 8.65798C4.63476 8.54868 4.81251 8.49422 4.99201 8.50466C5.1715 8.51512 5.34142 8.58949 5.47052 8.71462L5.54376 8.79763C5.65306 8.9404 5.70755 9.11813 5.69708 9.29763C5.68657 9.47706 5.61126 9.6471 5.48615 9.77615L5.40314 9.84841L3.13361 11.5857C2.99183 11.6943 2.81585 11.7485 2.63751 11.739C2.4593 11.7295 2.29033 11.6569 2.16095 11.534L2.08673 11.4519L0.345521 9.22146C0.223475 9.0647 0.168812 8.8659 0.193178 8.66873C0.217596 8.47156 0.318825 8.292 0.475404 8.1697C0.617013 8.05907 0.792983 8.00287 0.972475 8.0115C1.15187 8.02018 1.32266 8.09294 1.45294 8.21658L1.52716 8.29861L2.05841 8.9783C2.13132 8.34018 2.27117 7.70966 2.47931 7.09841C2.88131 5.91794 3.5249 4.83369 4.36798 3.91482C5.21103 2.99608 6.23625 2.26233 7.37775 1.76052C8.51925 1.25879 9.45291 0.999745 10.6998 0.99978Z"/>
</g>
<defs>
<clipPath id="clip0_5359_24092">
<rect width="20" height="20" fill="white" transform="translate(-0.000488281)"/>
</clipPath>
</defs>
</svg>

<svg xmlns="http://www.w3.org/2000/svg" viewBox="0 0 20 20"><g clip-path="url(#a)"><path d="M16.942 1.87c.203.55.637.985 1.188 1.189L20 3.75l-1.87.691a2.01 2.01 0 0 0-1.188 1.19L16.249 7.5l-.691-1.87a2.01 2.01 0 0 0-1.19-1.189L12.5 3.75l1.87-.691c.55-.204.985-.639 1.189-1.19L16.249 0zm2.03 5.43c.305 0 .58.192.671.483a7 7 0 0 1 .352 2.4 9 9 0 0 1-9.361 8.809 9 9 0 0 1-7.662-4.917L4.1 12.946A7.502 7.502 0 0 0 18.5 10c0-1.017-.1-1.266-.5-2.2-.097-.224.143-.5.387-.5z"/><path d="m11.5 9.999 3.195 3.196-1.06 1.06-3.536-3.536-.1-.112V5h1.5zM10.7 1q.168 0 .336.006a.703.703 0 0 1 .664.716c0 .451-.398.795-.849.785a7 7 0 0 0-.531.007c-1.015.052-1.71.309-2.623.756a7.5 7.5 0 0 0-4.17 6.125l.965-.737a.75.75 0 0 1 .979.057l.073.083a.75.75 0 0 1-.058.978l-.083.072-2.27 1.738a.75.75 0 0 1-.972-.052l-.074-.082-1.741-2.23a.75.75 0 0 1 1.107-1.005l.074.082.531.68a9 9 0 0 1 5.32-7.218C8.519 1.259 9.453 1 10.7 1"/></g><defs><clipPath id="a"><path fill="#fff" d="M0 0h20v20H0z"/></clipPath></defs></svg>
